assets/icons/qvision/desktop_access_disabled.svg

<svg xmlns="http://www.w3.org/2000/svg" height="24" viewBox="0 0 24 24" width="24"><path d="M0 0h24v24H0V0z" fill="none"/><path d="M23 16c0 1.1-.9 2-2 2h-1l-2-2h3V4H6L4 2h17c1.1 0 2 .9 2 2v12zm-5.5 2l-2-2zm-2.6 0l6 6 1.3-1.3-4.7-4.7-2-2L1.2 1.8 0 3.1l1 1V16c0 1.1.9 2 2 2h7v2H8v2h8v-2h-2v-2h.9zM3 16V6.1l9.9 9.9H3z"/></svg>

<svg width="24" height="24" viewBox="0 0 24 24" fill="none" xmlns="http://www.w3.org/2000/svg">
<g clip-path="url(#clip0_147_1805)">
<path d="M23 16C23 17.1 22.1 18 21 18H20L18 16H21V4H6L4 2H21C22.1 2 23 2.9 23 4V16ZM17.5 18L15.5 16L17.5 18ZM14.9 18L20.9 24L22.2 22.7L17.5 18L15.5 16L1.2 1.8L0 3.1L1 4.1V16C1 17.1 1.9 18 3 18H10V20H8V22H16V20H14V18H14.9ZM3 16V6.1L12.9 16H3Z" fill="#323232"/>
</g>
<defs>
<clipPath id="clip0_147_1805">
<rect width="24" height="24" fill="white"/>
</clipPath>
</defs>
</svg>
